!!!COM: Palestrina, Giovanni Perluigi da
!!!OPR: Ut re mi fa sol la
!!!OTL: Sanctus
**kern	**kern	**kern	**kern	**kern	**kern
*Ibass	*Itenor	*Icalto	*Icalto	*Icant	*Icant
!Bassus	!Tenor	!Altus 2	!Altus 1	!Cantus 2	!Cantus 1
*clefF4	*clefGv2	*clefG2	*clefG2	*clefG2	*clefG2
*k[]	*k[]	*k[]	*k[]	*k[]	*k[]
*C:ion	*C:ion	*C:ion	*C:ion	*C:ion	*C:ion
*M4/2	*M4/2	*M4/2	*M4/2	*M4/2	*M4/2
=1	=1	=1	=1	=1	=1
0r	0r	0r	0g	0r	0r
=2	=2	=2	=2	=2	=2
0r	0r	2.c	0e	0r	0g
.	.	4d	.	.	.
.	.	4e	.	.	.
.	.	4f	.	.	.
.	.	[2g	.	.	.
=3	=3	=3	=3	=3	=3
0r	0r	2g]	0d	0r	1.a
.	.	4f	.	.	.
.	.	4e	.	.	.
.	.	1f#	.	.	.
.	.	.	.	.	2b
=4	=4	=4	=4	=4	=4
0c	2.c	1g	2e	0g	2.cc
.	.	.	2.g	.	.
.	4d	.	.	.	4b
.	4e	1r	.	.	4cc
.	4f	.	4f	.	4dd
.	[2g	.	4e	.	[2ee
.	.	.	4d	.	.
=5	=5	=5	=5	=5	=5
0A	2g]	0c	2c	0a	2ee]
.	4f	.	2A	.	1cc
.	4e	.	.	.	.
.	1f#	.	1c	.	.
.	.	.	.	.	2a
=6	=6	=6	=6	=6	=6
0G	1g	0d	2B	0b	2r
.	.	.	4G	.	2.dd
.	.	.	4A	.	.
.	2r	.	4B	.	.
.	.	.	4c	.	4cc
.	2G	.	[2d	.	2b
=7	=7	=7	=7	=7	=7
0F	2A	2.f	4d]	0cc	2a
.	.	.	4c	.	.
.	4F	.	2c	.	2.cc
.	4G	8e	.	.	.
.	.	8d	.	.	.
.	4A	1c	2A	.	.
.	4B	.	.	.	4b
.	[2c	.	[2a	.	4a
.	.	.	.	.	4g
=8	=8	=8	=8	=8	=8
0D	2c]	2r	2a]	0dd	0f
.	4B	2f	2d	.	.
.	4A	.	.	.	.
.	1B	2d	2r	.	.
.	.	2f	2d	.	.
=9	=9	=9	=9	=9	=9
0C	0c	2.e	2.g	0ee	2r
.	.	.	.	.	4cc
.	.	4f	4f	.	4dd
.	.	1g	4e	.	4ee
.	.	.	4c	.	4ff
.	.	.	2cc	.	[2gg
=10	=10	=10	=10	=10	=10
0r	0d	0r	2b	0dd	2gg]
.	.	.	4a	.	4ff
.	.	.	4g	.	4ee
.	.	.	1a	.	1ff#
=11	=11	=11	=11	=11	=11
0C	2.e	2r	1g	0cc	2.gg
.	.	4c	.	.	.
.	4f	4d	.	.	4ff
.	1g	4e	2r	.	1ee
.	.	4f	.	.	.
.	.	2g	4G	.	.
.	.	.	4A	.	.
=12	=12	=12	=12	=12	=12
0G	2r	4G	4B	0b	0dd
.	.	4A	4c	.	.
.	4G	4B	2d	.	.
.	4A	4c	.	.	.
.	4B	2.d	2G	.	.
.	4c	.	.	.	.
.	[2d	.	2g	.	.
.	.	4e	.	.	.
=13	=13	=13	=13	=13	=13
1A	2d]	4f	2f	0a	2r
.	.	4g	.	.	.
.	2c#	4a	2e	.	1a
.	.	4g	.	.	.
1D	1d	4f#	[1d	.	.
.	.	4e	.	.	.
.	.	2f#	.	.	[2dd
=14	=14	=14	=14	=14	=14
2G	1B	2.g	2d]	[0g	4dd]
.	.	.	.	.	4b
2E	.	.	2G	.	2.ee
.	.	4f	.	.	.
1C	1c	1e	2r	.	.
.	.	.	.	.	4dd
.	.	.	[2g	.	[2cc
=15	=15	=15	=15	=15	=15
0G	1d	2d	4g]	0g]	2cc]
.	.	.	8f	.	.
.	.	.	8e	.	.
.	.	2G	2.d	.	4b
.	.	.	.	.	4a
.	2r	2r	.	.	1b
.	.	.	4c	.	.
.	2G	2d	4B	.	.
.	.	.	4A	.	.
=16	=16	=16	=16	=16	=16
0r	2G	2d	1B	0r	2r
.	2G	2d	.	.	2g
.	1c	1e	1r	.	2g
.	.	.	.	.	2g
=17	=17	=17	=17	=17	=17
0r	2A	2e	0r	0r	1a
.	1d	1f	.	.	.
.	.	.	.	.	1a
.	4c	4e	.	.	.
.	4B	4d	.	.	.
=18	=18	=18	=18	=18	=18
1r	2c#	2e	1r	1r	2a
.	2d	2f#	.	.	2a
2r	1G	1g	2r	1g	2.b
2G	.	.	2d	.	.
.	.	.	.	.	4cc
=19	=19	=19	=19	=19	=19
2G	0r	0r	2d	2g	4dd
.	.	.	.	.	4g
2G	.	.	2d	2g	2.gg
1c	.	.	1e	1g	.
.	.	.	.	.	4ff
.	.	.	.	.	4ee
.	.	.	.	.	4dd
=20	=20	=20	=20	=20	=20
2A	0r	0r	2e	1a	2cc
1d	.	.	1f	.	1dd
.	.	.	.	1a	.
4c	.	.	4e	.	[2ee
4B	.	.	4d	.	.
=21	=21	=21	=21	=21	=21
2c#	0r	2r	2e	1a	2ee]
2d	.	2d	2f#	.	2dd
[1G	.	2d	2.g	[1b	2r
.	.	2d	.	.	2dd
.	.	.	8f	.	.
.	.	.	8e	.	.
=22	=22	=22	=22	=22	=22
1G]	2r	2.g	1d	0b]	2dd
.	2G	.	.	.	2dd
.	.	4f	.	.	.
1r	2G	2e	2r	.	1gg
.	2G	2d	2g	.	.
=23	=23	=23	=23	=23	=23
1C	2.c	2.e	2e	1cc	2ee
.	.	.	2e	.	2.gg
.	4d	4f	.	.	.
2C	1e	2g	1a	2cc	.
.	.	.	.	.	4ff
2C	.	[2c	.	2cc	4ee
.	.	.	.	.	4dd
=24	=24	=24	=24	=24	=24
1F	2r	2c]	1f	1cc	4cc
.	.	.	.	.	4b
.	1A	1f	.	.	4a
.	.	.	.	.	4g
2D	.	.	1r	1dd	2f
[2G	[2B	2d	.	.	[2g
=25	=25	=25	=25	=25	=25
2G]	2B]	2r	1r	1dd	2g]
4F	4A	2d	.	.	1a
4E	4G	.	.	.	.
2F#	2A	2d	2r	1dd	.
2G	2B	2d	2g	.	4g
.	.	.	.	.	4f
=26	=26	=26	=26	=26	=26
1C	1.c	2g	2g	[0ee	1e
.	.	2e	2g	.	.
1r	.	1a	1cc	.	1r
.	2A	.	.	.	.
=27	=27	=27	=27	=27	=27
0r	2e	2g	2b	1ee]	2r
.	2c	2cc	1a	.	2ee
.	2d	1b	.	1r	2dd
.	2e	.	2g#	.	2b
=28	=28	=28	=28	=28	=28
1r	2.A	2r	1a	1ee	1.cc
.	.	2a	.	.	.
.	4B	.	.	.	.
2r	1c	2g	[1e	1ee	.
2A	.	2e	.	.	2cc
=29	=29	=29	=29	=29	=29
2G	2r	1g	1e]	1ee	2b
2E	2c	.	.	.	2g
1G	2B	4G	2r	1dd	1b
.	.	4A	.	.	.
.	2G	4B	2g	.	.
.	.	4c	.	.	.
=30	=30	=30	=30	=30	=30
0D	1A	4d	2f	1dd	1a
.	.	4e	.	.	.
.	.	4f	2d	.	.
.	.	4g	.	.	.
.	2F	2a	[1f	1dd	2r
.	2B-	2d	.	.	4f
.	.	.	.	.	4g
=31	=31	=31	=31	=31	=31
1r	2A	2r	1f]	1cc	4a
.	.	.	.	.	4g
.	2F	2f	.	.	4a
.	.	.	.	.	4b
2r	1A	2e	1c	1cc	4cc
.	.	.	.	.	4b
2F	.	2c	.	.	4cc
.	.	.	.	.	4dd
=32	=32	=32	=32	=32	=32
2E	1G	1g	2r	1cc	4ee
.	.	.	.	.	4dd
2C	.	.	2.e	.	4ee
.	.	.	.	.	4ff
2.E	2r	2g	.	1b	[1gg
.	.	.	4f	.	.
.	2e	4G	[2g	.	.
4F	.	4A	.	.	.
=33	=33	=33	=33	=33	=33
0G	2d	4B	2g]	1b	2gg]
.	.	4c	.	.	.
.	2B	2d	2d	.	4g
.	.	.	.	.	4a
.	[1d	2B	2r	1b	4b
.	.	.	.	.	4a
.	.	2G	2g	.	4b
.	.	.	.	.	4cc
=34	=34	=34	=34	=34	=34
0D	1d]	0A	2f	1a	4dd
.	.	.	.	.	4cc
.	.	.	1d	.	4dd
.	.	.	.	.	4ee
.	2A	.	.	1a	2ff
.	2d	.	[2f	.	4f
.	.	.	.	.	4g
=35	=35	=35	=35	=35	=35
1F	2c	2r	2f]	1a	4a
.	.	.	.	.	4b
.	2A	2f	1c	.	4cc
.	.	.	.	.	4dd
1C	1c	2e	.	[1g	4ee
.	.	.	.	.	4ff
.	.	2c	[2e	.	[2gg
=36	=36	=36	=36	=36	=36
2.E	[0G	2g	4e]	0g_	4gg]
.	.	.	4f	.	4ff
.	.	2G	2.g	.	2ee
4F	.	.	.	.	.
2G	.	2B	.	.	2dd
.	.	.	4f	.	.
2C	.	2c	2e	.	[2cc
=37	=37	=37	=37	=37	=37
0G	1G]	1d	0d	0g_	2cc]
.	.	.	.	.	4b
.	.	.	.	.	4a
.	2r	1G	.	.	1b
.	2g	.	.	.	.
=38	=38	=38	=38	=38	=38
1C	2e	1.g	0c	1g]	2cc
.	2c	.	.	.	2gg
1c	1e	.	.	1r	2ee
.	.	2a	.	.	2cc
=39	=39	=39	=39	=39	=39
2B-	1d	1.b-	2r	0r	1dd
2G	.	.	2g	.	.
1B-	2r	.	2f	.	1dd
.	2d	2g	2d	.	.
=40	=40	=40	=40	=40	=40
1A	2c	2a	1e	[0ee	1r
.	2A	2a	.	.	.
2r	1c	2g	[1e	.	1cc
2A	.	2e	.	.	.
=41	=41	=41	=41	=41	=41
2G	2r	1g	1e]	1ee]	2b
2E	2c	.	.	.	2g
1G	2B	4G	2r	[1dd	1b
.	.	4A	.	.	.
.	2G	4B	2g	.	.
.	.	4c	.	.	.
=42	=42	=42	=42	=42	=42
0D	1A	4d	2f	0dd]	1a
.	.	4e	.	.	.
.	.	4f	2d	.	.
.	.	4g	.	.	.
.	2F	2a	[1f	.	2r
.	2B-	2d	.	.	4f
.	.	.	.	.	4g
=43	=43	=43	=43	=43	=43
1r	2A	2r	1f]	[0cc	4a
.	.	.	.	.	4g
.	2F	2f	.	.	4a
.	.	.	.	.	4b
2r	1A	2e	1c	.	4cc
.	.	.	.	.	4b
2F	.	2c	.	.	4cc
.	.	.	.	.	4dd
=44	=44	=44	=44	=44	=44
2E	1G	1g	2r	1cc]	4ee
.	.	.	.	.	4dd
2C	.	.	2.e	.	4ee
.	.	.	.	.	4ff
2.E	2r	2g	.	[1b	[1gg
.	.	.	4f	.	.
.	2e	4G	[2g	.	.
4F	.	4A	.	.	.
=45	=45	=45	=45	=45	=45
0G	2d	4B	2g]	0b]	2gg]
.	.	4c	.	.	.
.	2B	2d	2d	.	4g
.	.	.	.	.	4a
.	[1d	2B	2r	.	4b
.	.	.	.	.	4a
.	.	2G	2g	.	4b
.	.	.	.	.	4cc
=46	=46	=46	=46	=46	=46
0D	1d]	0A	2f	[0a	4dd
.	.	.	.	.	4cc
.	.	.	1d	.	4dd
.	.	.	.	.	4ee
.	2A	.	.	.	2ff
.	2d	.	[2f	.	4f
.	.	.	.	.	4g
=47	=47	=47	=47	=47	=47
1F	2c	2r	2f]	1a]	4a
.	.	.	.	.	4b
.	2A	2f	1c	.	4cc
.	.	.	.	.	4dd
1C	1c	2e	.	1g	4ee
.	.	.	.	.	4ff
.	.	2c	[2e	.	[2gg
=48	=48	=48	=48	=48	=48
2.E	[0G	2g	4e]	[0g	4gg]
.	.	.	4f	.	4ff
.	.	2G	2.g	.	2ee
4F	.	.	.	.	.
2G	.	2B	.	.	2dd
.	.	.	4f	.	.
2C	.	2c	2e	.	[2cc
=49	=49	=49	=49	=49	=49
0G	0G]	2d	0d	0g]	2cc]
.	.	2G	.	.	4b
.	.	.	.	.	4a
.	.	1g	.	.	1b
=50	=50	=50	=50	=50	=50
[0C	[0G	[0e	[0c	[0g	[0cc
=51	=51	=51	=51	=51	=51
0C]	0G]	0e]	0c]	0g]	0cc]
*	*	*	*	*-	*-
!! Pleni
*Icalto	*Icalto	*Icant	*Icant
!Altus 2	!Altus 1	!Cantus 2	!Cantus 1
*clefG2	*clefG2	*clefG2	*clefG2
*k[]	*k[]	*k[]	*k[]
*C:ion	*C:ion	*C:ion	*C:ion
*M4/2	*M4/2	*M4/2	*M4/2
=52	=52	=52	=52
0r	0r	0r	1cc
.	.	.	1ee
=53	=53	=53	=53
0r	0r	0r	1ff#
.	.	.	2.gg
.	.	.	4ff
=54	=54	=54	=54
1c	0r	1r	4ee
.	.	.	4dd
.	.	.	1cc
1e	.	1g	.
.	.	.	2b
=55	=55	=55	=55
1f#	0r	1a	1a
2.g	.	1b	2g
.	.	.	[2gg
4f	.	.	.
=56	=56	=56	=56
4e	0r	1cc	4gg]
4d	.	.	4ff
1c	.	.	1ee
.	.	1dd	.
2B	.	.	[2dd
=57	=57	=57	=57
2A	0r	1ee	4dd]
.	.	.	4cc
2a	.	.	1cc
2f	.	1dd	.
2g	.	.	2b
=58	=58	=58	=58
2.e	1c	1cc	0ee
4f	.	.	.
1g	1e	1b	.
=59	=59	=59	=59
1d	1f#	1a	2.dd
.	.	.	4cc
2r	2.g	1g	1b
[2g	.	.	.
.	4f	.	.
=60	=60	=60	=60
4g]	4e	0r	2r
4f	4d	.	.
4e	1c	.	2g
4d	.	.	.
2c	.	.	2a
2d	2B	.	2b
=61	=61	=61	=61
2e	1A	1r	1cc
2c	.	.	.
1e	2G	1g	2.b
.	[2g	.	.
.	.	.	4cc
=62	=62	=62	=62
1d	2g]	1a	1dd
.	2f#	.	.
1r	1g	1b	2r
.	.	.	2dd
=63	=63	=63	=63
2r	2c	1cc	1ee
2g	2e	.	.
2a	2d	1dd	2ff#
2b	2g	.	2gg
=64	=64	=64	=64
1cc	1c	1ee	2cc
.	.	.	1gg
2b	2r	1dd	.
2a	2d	.	2ff
=65	=65	=65	=65
2g	2e	1cc	2ee
2.a	2f#	.	4dd
.	.	.	4cc
.	2g	1b	2ee
4g	.	.	.
[2g	2G	.	2dd
=66	=66	=66	=66
2g]	1d	0a	1dd
4f	.	.	.
4e	.	.	.
1f#	2.d	.	2r
.	.	.	[2dd
.	4c	.	.
=67	=67	=67	=67
1g	2B	[0g	2dd]
.	2G	.	2b
1r	1c	.	2cc
.	.	.	2ee
=68	=68	=68	=68
2r	1G	1g]	2.dd
1g	.	.	.
.	.	.	4cc
.	1r	1r	2b
2e	.	.	2cc
=69	=69	=69	=69
2f	0r	0r	4a
.	.	.	4b
2a	.	.	4cc
.	.	.	4dd
2.g	.	.	2ee
.	.	.	[2dd
4f	.	.	.
=70	=70	=70	=70
2e	0r	0r	4dd]
.	.	.	4cc
2f	.	.	2cc
4d	.	.	1ff
4e	.	.	.
4f	.	.	.
4g	.	.	.
=71	=71	=71	=71
4a	1r	0r	1ee
4b	.	.	.
1cc	.	.	.
.	2r	.	2dd
4b	[2g	.	2cc
4a	.	.	.
=72	=72	=72	=72
2b	2g]	1g	2dd
1cc	2e	.	2ee
.	2f	1a	2.cc
2f	2a	.	.
.	.	.	4dd
=73	=73	=73	=73
0r	2.g	1b	2ee
.	.	.	2.dd
.	4f	.	.
.	2e	1cc	.
.	.	.	4cc
.	2f	.	[2cc
=74	=74	=74	=74
2r	2d	1dd	2cc]
1g	2G	.	2b
.	1c	1ee	1cc
2e	.	.	.
=75	=75	=75	=75
2f	2.d	1dd	0r
1a	.	.	.
.	4e	.	.
.	2f	1cc	.
[2g	[2e	.	.
=76	=76	=76	=76
4g]	4e]	1b	1r
4f	4d	.	.
2d	2B	.	.
2e	2c	1a	2r
2f#	2d	.	[2dd
=77	=77	=77	=77
1g	2G	1g	2dd]
.	1g	.	2b
1c	.	1r	2cc
.	2e	.	2ee
=78	=78	=78	=78
1d	2f	0r	2.dd
.	2a	.	.
.	.	.	4cc
1r	2.g	.	4b
.	.	.	4a
.	.	.	2b
.	4f	.	.
=79	=79	=79	=79
1r	2e	0r	2cc
.	2f	.	2a
2r	4d	.	1ff
.	4e	.	.
[2d	4f	.	.
.	4g	.	.
=80	=80	=80	=80
2d]	2a	1r	1dd
2B	4g	.	.
.	4f	.	.
2c	2e	1g	2ee
2e	[2g	.	2cc
=81	=81	=81	=81
1d	2g]	1a	0dd
.	2f#	.	.
2G	1g	1b	.
[2g	.	.	.
=82	=82	=82	=82
2g]	1c	0cc	1ee
2e	.	.	.
2f	1r	.	2r
2a	.	.	[2cc
=83	=83	=83	=83
2.g	2r	1dd	2cc]
.	1g	.	4b
4f	.	.	4a
2e	.	1ee	2b
2c	2e	.	2cc
=84	=84	=84	=84
1d	2f	0dd	1a
.	2a	.	.
2r	1g	.	2.b
[2g	.	.	.
.	.	.	8cc
.	.	.	8dd
=85	=85	=85	=85
2g]	1c	0cc	1ee
2e	.	.	.
2f	2r	.	1a
[2a	2A	.	.
=86	=86	=86	=86
4a]	2B	1b	1dd
4g	.	.	.
1g	2G	.	.
.	1d	1a	2r
2f#	.	.	[2dd
=87	=87	=87	=87
2.g	1G	[0g	2dd]
.	.	.	2b
4f	.	.	.
2.e	2.c	.	2cc
.	.	.	[2ee
4d	4d	.	.
=88	=88	=88	=88
2c	2e	0g]	2ee]
2d	2B	.	2dd
1e	1c	.	1cc
=89	=89	=89	=89
[0d	[0G	[0g	[0b
=90	=90	=90	=90
0d]	0G]	0g]	0b]
*-	*-	*-	*-
!! Hosanna
**kern	**kern	**kern	**kern	**kern	**kern
*Ibass	*Itenor	*Icalto	*Icalto	*Icant	*Icant
!Bassus	!Tenor	!Altus 2	!Altus 1	!Cantus 2	!Cantus 1
*clefF4	*clefGv2	*clefG2	*clefG2	*clefG2	*clefG2
*k[]	*k[]	*k[]	*k[]	*k[]	*k[]
*C:ion	*C:ion	*C:ion	*C:ion	*C:ion	*C:ion
*M4/2	*M4/2	*M4/2	*M4/2	*M4/2	*M4/2
=91	=91	=91	=91	=91	=91
0r	1r	0r	1.g	0r	0r
.	[1c	.	.	.	.
.	.	.	2f	.	.
=92	=92	=92	=92	=92	=92
0r	1c]	1r	1e	0g	0r
.	1B	[1g	1d	.	.
=93	=93	=93	=93	=93	=93
0r	0A	1g]	0c	0a	0r
.	.	1f	.	.	.
=94	=94	=94	=94	=94	=94
0G	1G	1e	1.g	0b	0r
.	1B	[1d	.	.	.
.	.	.	2d	.	.
=95	=95	=95	=95	=95	=95
1F	1A	2d]	1f	0cc	1r
.	.	2c	.	.	.
1E	1G	1c	2g	.	[1gg
.	.	.	4G	.	.
.	.	.	4A	.	.
=96	=96	=96	=96	=96	=96
0D	0d	1B	4B	0dd	1gg]
.	.	.	4c	.	.
.	.	.	4d	.	.
.	.	.	4e	.	.
.	.	1A	2f	.	1ff
.	.	.	2d	.	.
=97	=97	=97	=97	=97	=97
0C	1G	2.c	1g	0ee	2.ee
.	.	4d	.	.	4dd
.	[1g	1e	1G	.	2cc
.	.	.	.	.	2b
=98	=98	=98	=98	=98	=98
0D	1g]	1A	1d	0dd	[0a
.	1f	1r	1A	.	.
=99	=99	=99	=99	=99	=99
0A	2.e	1r	2.c	0cc	0a]
.	4d	.	4d	.	.
.	2c	[1a	1e	.	.
.	2A	.	.	.	.
=100	=100	=100	=100	=100	=100
0E	2B	1a]	0e	0b	1r
.	2.e	.	.	.	.
.	.	1g	.	.	[1ee
.	4d	.	.	.	.
.	2B	.	.	.	.
=101	=101	=101	=101	=101	=101
1A	1c#	1e	0r	0a	1ee]
1D	1d	1f#	.	.	[1dd
=102	=102	=102	=102	=102	=102
1G	1B	1g	1r	0g	1dd]
1C	1c	1e	[1g	.	1cc
=103	=103	=103	=103	=103	=103
0D	1r	0d	1g]	0r	1b
.	1d	.	1f	.	1a
=104	=104	=104	=104	=104	=104
0r	1c	0r	1e	0g	1cc
.	1B	.	1d	.	[1dd
=105	=105	=105	=105	=105	=105
0r	0A	0r	0e	0a	2dd]
.	.	.	.	.	4cc
.	.	.	.	.	4b
.	.	.	.	.	1cc#
=106	=106	=106	=106	=106	=106
0G	1G	0g	2r	0b	2dd
.	.	.	2d	.	1g
.	1d	.	2B	.	.
.	.	.	2G	.	2b
=107	=107	=107	=107	=107	=107
1A	0c	1f	4c	0cc	2a
.	.	.	4A	.	.
.	.	.	2a	.	2cc
[1c	.	1e	[1g	.	2.ee
.	.	.	.	.	4ff
=108	=108	=108	=108	=108	=108
1c]	0G	0d	0g]	0dd	0gg
1B	.	.	.	.	.
=109	=109	=109	=109	=109	=109
1c	2.g	2.c	1r	0ee	1gg
.	4f	4d	.	.	.
1C	2e	4e	[1cc	.	1r
.	.	4f	.	.	.
.	2c	[2g	.	.	.
=110	=110	=110	=110	=110	=110
1G	1d	2g]	1cc]	0dd	0gg
.	.	4f	.	.	.
.	.	4e	.	.	.
1r	1G	1d	1b	.	.
=111	=111	=111	=111	=111	=111
1F	2.A	2r	1a	0cc	1ff
.	.	2c	.	.	.
.	4B	.	.	.	.
1C	1c	2.e	[1g	.	1ee
.	.	4f	.	.	.
=112	=112	=112	=112	=112	=112
0G	2.d	1g	2g]	0b	0dd
.	.	.	4f	.	.
.	4c	.	4e	.	.
.	2B	[1g	1d	.	.
.	2G	.	.	.	.
=113	=113	=113	=113	=113	=113
0D	1A	2g]	2r	0a	1dd
.	.	4f	2.d	.	.
.	.	4e	.	.	.
.	2A	1f#	.	.	[1dd
.	.	.	4c	.	.
.	[2d	.	2A	.	.
=114	=114	=114	=114	=114	=114
0G	2d]	1g	2B	0g	2dd]
.	1c	.	2c	.	2ee
.	.	1r	1d	.	1dd
.	2B	.	.	.	.
!! H.coda
*Ibass	*Itenor	*Icalto	*Icalto	*Icant	*Icant
!Bassus	!Tenor	!Altus 2	!Altus 1	!Cantus 2	!Cantus 1
*clefF4	*clefGv2	*clefG2	*clefG2	*clefG2	*clefG2
*k[]	*k[]	*k[]	*k[]	*k[]	*k[]
*C:ion	*C:ion	*C:ion	*C:ion	*C:ion	*C:ion
*M3/2	*M3/2	*M3/2	*M3/2	*M3/2	*M3/2
=115	=115	=115	=115	=115	=115
2c	2c	1r	2e	1r	2g
2c	2r	.	2e	.	2g
2c	2r	2r	2e	2r	2g
=116	=116	=116	=116	=116	=116
2.F	1r	2c	1f	1r	1a
.	.	2c	.	.	.
4G	.	.	.	.	.
2A	2r	2c	2e	2r	2a
=117	=117	=117	=117	=117	=117
1.G	1r	1d	1g	1r	1.cc
.	2r	2d	2g	2r	.
=118	=118	=118	=118	=118	=118
1.C	2c	1.e	4g	1.g	1.cc
.	.	.	4f	.	.
.	2c	.	4e	.	.
.	.	.	4d	.	.
.	2c	.	4c	.	.
.	.	.	4B	.	.
=119	=119	=119	=119	=119	=119
1r	2.F	1f	1A	1.a	2cc
.	.	.	.	.	2cc
.	4G	.	.	.	.
2r	2A	2e	2c	.	2cc
=120	=120	=120	=120	=120	=120
2G	4G	1g	1B	1.b	1dd
.	4A	.	.	.	.
2G	4B	.	.	.	.
.	4c	.	.	.	.
2G	2d	2g	2G	.	2dd
=121	=121	=121	=121	=121	=121
2.C	1c	2e	2.g	1.cc	2.ee
.	.	1g	.	.	.
4D	.	.	4f	.	4ff
2E	2r	.	2e	.	2gg
=122	=122	=122	=122	=122	=122
1D	2A	1a	2A	1.dd	2.ff#
.	2A	.	1d	.	.
.	.	.	.	.	4ee
2D	2A	2d	.	.	2ff#
=123	=123	=123	=123	=123	=123
2.C	4c	2r	2G	1.ee	2gg
.	4d	.	.	.	.
.	4e	1g	1c	.	2g
4D	4f	.	.	.	.
4E	2g	.	.	.	4g
4F	.	.	.	.	4a
=124	=124	=124	=124	=124	=124
1G	4G	1g	1B	1.dd	4b
.	4A	.	.	.	4cc
.	4B	.	.	.	4dd
.	4c	.	.	.	4ee
2D	2d	2f	[2A	.	[2ff
=125	=125	=125	=125	=125	=125
2F	2A	2a	2A]	1.cc	2ff]
2.C	1c	2g	2e	.	2.ee
.	.	[2G	[2g	.	.
4D	.	.	.	.	4ff
=126	=126	=126	=126	=126	=126
4E	2.G	4G]	1.g]	1.b	2.gg
4F	.	4A	.	.	.
1G	.	4B	.	.	.
.	4A	4c	.	.	4ff
.	4B	[2d	.	.	4dd
.	4c	.	.	.	4ee
=127	=127	=127	=127	=127	=127
2D	2d	2d]	2.f	1.a	1ff
4F	2A	2c	.	.	.
4G	.	.	4e	.	.
4A	[2c	2r	4c	.	[2ee
4B	.	.	4d	.	.
=128	=128	=128	=128	=128	=128
2c	4c]	2.c	2.e	1.g	2ee]
.	4d	.	.	.	.
2.C	4e	.	.	.	2.gg
.	4f	4d	4d	.	.
.	2g	4e	2c	.	.
4D	.	4f	.	.	4ff
=129	=129	=129	=129	=129	=129
4E	2G	1g	1B	[1.g	2ee
4F	.	.	.	.	.
2G	2B	.	.	.	2.dd
2C	2c	[2e	2G	.	.
.	.	.	.	.	4cc
=130	=130	=130	=130	=130	=130
2C	2.G	2e]	2.g	1.g]	1cc
1G	.	1d	.	.	.
.	4A	.	4f	.	.
.	2B	.	2d	.	2b
=131	=131	=131	=131	=131	=131
[1.C	[1.G	[1.c	[1.e	[1.g	[1.cc
=132	=132	=132	=132	=132	=132
1.C]	1.G]	1.c]	1.e]	1.g]	1.cc]
==	==	==	==	==	==
*-	*-	*-	*-	*-	*-
!!!CDT: 1525/^1526/-1594/2/2
!!!OCY: Italia
!!!AGN: Mass (Tenor)
!!!AST: renaissance, vocal
!!!ASW: Antiphon
!!!PWK: Masses, Book 3
!!!RNB: Cadence finals: G
!!!YOR: Le Opere Complete, v. 6, p. 216
!!!YOO: Rome, Italy: Fratelli Scalera
!!!END: 1992//
!!!EED: John Miller
!!!YEC: Copyright 2000, John Miller
!!!YEN: United States of America
!!!YEM: Rights to all derivative electronic formats reserved.
!!!YEM: Refer to licensing agreement for further details.
!!!YEM: This file must be accompanied by the licensing agreement.
!!!YEM: A copy of the licensing agreement may be found at http://www.music-cog.ohio-state.edu/HumdrumDatabases/Palestrina/license.txt
!!!EMD: converted to Humdrum by Bret Aarden
